X: 5353
T: Buck In The Woods, The
R: jig
M: 6/8
K: Gmajor
|:A|BGG dGG|cAG FGA|BAG Bcd|cAF G2A|
BGG dGG|cAG FGA|df/g/d g/f/ed|cAF G2:|
|:B|Add ded|cAG FGA|df/g/d ded|cAB c2B|
Add ded|cAG FGA|d2e g/f/ed|cAF G2:|

